X:0601
T:Roxburgh Castle
P:Roxburgh Castle
C:Collected in Roxburghshire
R:Reel (8x32)
B:RSCDS 6-1
Z:Anselm Lingnau <anselm@strathspey.org>
M:C|
L:1/8
K:A
|:E|"A"A2Ac ecAc|"D"d2df "A"ecAc|"D"d2fd "A"c2ec|"Bm"B2B2 "E"BdcB|
    "A"A2Ac ecAc|"D"d2df "A"edcd|"A"eagf "E7"edcB|"A"A2"D"A2 "A"A3:|
|:e|"A"aece fece|aece fece|"D"d2fd "A"c2ec|"B"B2B2 "E7"BdcB|
    "A"A2Ac ecAc|"D"d2df "A"edcd|"A"eagf "E7"edcB|"A"A2"D"A2 "A"A3:|

